X:5087
T:Peter O'Byrne's Fancy
O:england
R:jig
D:Moving Hearts: The Storm
D:Arty McGlynn: McGlynn's Fancy
M:6/8
L:1/8
K:Dmix
AFD c2A|BAG ~A3|AFD c2A|BGE EGD|
AFD cAA|BAG ~A3|cde dcA|1 GEA ~D3:|2 GEA D2c||
|:cde dcA|AGE c2A|cde dcA|AGE EGD|
cde dcA|AGE c2d|fed cAG|AGE EGD:|


